X:62
T:Bina O'Keeffe's Favorite
B:Terry "Cuz" Teahan "Sliabh Luachra on Parade" 1980
Z:Patrick Cavanagh
M:2/4
L:1/8
R:Polka
K:D
| Bc/B/ AF | de fe | dB AF | A2 FE | 
Bc/B/ AF | de fe | dB BA | B2 B2 :| 
| fb ba | fe f>e | de fg | a2 fe | 
fb ba | fe f>e | dB BA | B2 B2 :|| 

